Newaita-dark/apps/22/vokoscreen.svg

<svg height="22pt" viewBox="0 0 22 22" width="22pt" xmlns="http://www.w3.org/2000/svg" xmlns:xlink="http://www.w3.org/1999/xlink"><linearGradient id="a" gradientUnits="userSpaceOnUse" x1="10.9151146" x2="10.9151146" y1="19.27333515" y2="20.18292834324"><stop offset="0" stop-opacity=".27451"/><stop offset="1" stop-opacity="0"/></linearGradient><linearGradient id="b"><stop offset="0" stop-opacity=".313725"/><stop offset=".222222" stop-opacity=".27451"/><stop offset="1" stop-opacity="0"/></linearGradient><radialGradient id="c" cx="450.90894" cy="189.57936" gradientTransform="matrix(.00000012 -.0537161 -.0966889 -.00000007 36.749413 43.721792)" gradientUnits="userSpaceOnUse" r="21.166656" xlink:href="#b"/><radialGradient id="d" cx="450.90894" cy="189.57936" gradientTransform="matrix(-.00000012 .0537161 .0966889 .00000007 -14.919203 -5.175142)" gradientUnits="userSpaceOnUse" r="21.166656" xlink:href="#b"/><radialGradient id="e" cx="450.90894" cy="189.57936" gradientTransform="matrix(-.00000012 -.0537161 .0966889 -.00000007 -14.919203 43.721792)" gradientUnits="userSpaceOnUse" r="21.166656" xlink:href="#b"/><radialGradient id="f" cx="450.90894" cy="189.57936" gradientTransform="matrix(.00000012 .0537161 -.0966889 .00000007 36.749411 -5.175143)" gradientUnits="userSpaceOnUse" r="21.166656" xlink:href="#b"/><linearGradient id="g"><stop offset="0" stop-color="#424242"/><stop offset="1" stop-color="#616161"/></linearGradient><linearGradient id="h" gradientTransform="matrix(.0518029 0 0 .149471 -4.024634 23.128427)" gradientUnits="userSpaceOnUse" x1="306.91666" x2="305.95456" xlink:href="#g" y1="-25.791676" y2="-135.32916"/><linearGradient id="i"><stop offset="0" stop-color="#f44336"/><stop offset="1" stop-color="#ef5350"/></linearGradient><linearGradient id="j" gradientUnits="userSpaceOnUse" x1="12.734288" x2="12.734288" xlink:href="#i" y1="19.28272842218" y2="2.91007151259"/><linearGradient id="k" gradientTransform="matrix(.5 0 0 .571428 -105.83347 106.33793)" gradientUnits="userSpaceOnUse" x1="444.5" x2="444.5" xlink:href="#g" y1="185.875" y2="148.83333"/><linearGradient id="l" gradientTransform="matrix(.5 0 0 .571428 -63.500116 106.33793)" gradientUnits="userSpaceOnUse" x1="444.5" x2="444.5" xlink:href="#g" y1="185.875" y2="148.83333"/><linearGradient id="m" gradientTransform="matrix(.5 0 0 .571428 -21.166803 106.33793)" gradientUnits="userSpaceOnUse" x1="444.5" x2="444.5" xlink:href="#g" y1="185.875" y2="148.83333"/><linearGradient id="n" gradientTransform="matrix(.5 0 0 .571428 169.3332 106.33793)" gradientUnits="userSpaceOnUse" x1="444.5" x2="444.5" xlink:href="#g" y1="185.875" y2="148.83333"/><linearGradient id="o" gradientUnits="userSpaceOnUse" x1="10.9151166" x2="10.9151166" xlink:href="#i" y1="19.27333515" y2="2.90066025"/><path d="m3.183594 19.273438h15.464844v.910156h-15.464844zm0 0" fill="url(#a)"/><path d="m18.648438 19.273438h1.816406v-.910157h-1.816406zm0 0" fill="url(#c)"/><path d="m3.183594 19.273438h-1.820313v.910156h1.820313zm0 0" fill="url(#d)"/><path d="m3.183594 19.273438h-1.820313v-.910157h1.820313zm0 0" fill="url(#e)"/><path d="m18.648438 19.273438h1.816406v.910156h-1.816406zm0 0" fill="url(#f)"/><path d="m2.273438 2.902344h17.28125c.503906 0 .910156.40625.910156.90625v14.554687c0 .503907-.40625.910157-.910156.910157h-17.28125c-.5 0-.910157-.40625-.910157-.910157v-14.554687c0-.5.410157-.90625.910157-.90625zm0 0" fill="url(#h)"/><path d="m2.273438 19.28125c-.503907 0-.910157-.40625-.910157-.910156v-.234375c0 .503906.40625.910156.910157.910156h17.28125c.503906 0 .910156-.40625.910156-.910156v.234375c0 .503906-.40625.910156-.910156.910156zm0 0" fill-opacity=".235294"/><path d="m4.546875 16.554688c-.503906 0-.910156.40625-.910156.910156v1.363281c0 .25.203125.453125.457031.453125h13.644531c.25 0 .453125-.203125.453125-.453125v-1.363281c0-.503906-.40625-.910156-.910156-.910156zm0 0" fill="url(#j)"/><g stroke="#212121" stroke-linecap="round" stroke-width="3" transform="matrix(.0429729 0 0 .0429729 0 9.239163)"><path d="m116.443426 191.415735c5.817626 0 10.544447 4.726821 10.544447 10.544447 0 5.817627-4.726821 10.635348-10.544447 10.635348-5.908527 0-10.635348-4.817721-10.635348-10.635348 0-5.817626 4.726821-10.544447 10.635348-10.544447zm0 0" fill="url(#k)"/><path d="m158.712116 191.415735c5.908527 0 10.635348 4.726821 10.635348 10.544447 0 5.817627-4.726821 10.635348-10.635348 10.635348-5.817626 0-10.544447-4.817721-10.544447-10.635348 0-5.817626 4.726821-10.544447 10.544447-10.544447zm0 0" fill="url(#l)"/><path d="m201.071708 191.415735c5.817626 0 10.635348 4.726821 10.635348 10.544447 0 5.817627-4.817722 10.635348-10.635348 10.635348-5.817627 0-10.544448-4.817721-10.544448-10.635348 0-5.817626 4.726821-10.544447 10.544448-10.544447zm0 0" fill="url(#m)"/><path d="m391.598968 191.415735c5.817626 0 10.544447 4.726821 10.544447 10.544447 0 5.817627-4.726821 10.635348-10.544447 10.635348s-10.635348-4.817721-10.635348-10.635348c0-5.817626 4.817722-10.544447 10.635348-10.544447zm0 0" fill="url(#n)"/></g><path d="m4.546875 16.554688c-.503906 0-.910156.40625-.910156.910156v.214844c0-.503907.40625-.90625.910156-.90625h12.734375c.503906 0 .910156.402343.910156.90625v-.214844c0-.503906-.40625-.910156-.910156-.910156zm0 0" fill="#fff" fill-opacity=".392157"/><path d="m3.636719 18.601562v.226563c0 .25.203125.453125.457031.453125h13.644531c.25 0 .453125-.203125.453125-.453125v-.226563c0 .25-.203125.453126-.453125.453126h-13.644531c-.253906 0-.457031-.203126-.457031-.453126zm0 0" fill-opacity=".235294"/><path d="m4.546875 16.488281c-.539063 0-.972656.4375-.972656.976563v1.363281c0 .285156.230469.519531.519531.519531h13.644531c.285157 0 .519531-.234375.519531-.519531v-1.363281c0-.539063-.4375-.976563-.976562-.976563zm0 .128907h12.734375c.46875 0 .847656.378906.847656.847656v1.363281c0 .21875-.175781.390625-.390625.390625h-13.644531c-.21875 0-.390625-.171875-.390625-.390625v-1.363281c0-.46875.375-.847656.84375-.847656zm0 0" fill="#212121"/><path d="m2.273438 2.953125c-.503907 0-.910157.40625-.910157.910156v.121094c0-.503906.40625-.90625.910157-.90625h17.28125c.503906 0 .910156.402344.910156.90625v-.121094c0-.503906-.40625-.910156-.910156-.910156zm0 0" fill="#fff" fill-opacity=".392157"/><path d="m2.273438 2.835938c-.539063 0-.972657.4375-.972657.972656v14.554687c0 .539063.433594.972657.972657.972657h17.28125c.539062 0 .976562-.433594.976562-.972657v-14.554687c0-.535156-.4375-.972656-.976562-.972656zm0 .128906h17.28125c.472656 0 .847656.375.847656.84375v14.554687c0 .46875-.375.84375-.847656.84375h-17.28125c-.46875 0-.84375-.375-.84375-.84375v-14.554687c0-.46875.375-.84375.84375-.84375zm0 0" fill="#212121"/><path d="m10.914062 6.539062c1.757813 0 3.183594 1.425782 3.183594 3.183594 0 1.757813-1.425781 3.183594-3.183594 3.183594-1.757812 0-3.183593-1.425781-3.183593-3.183594 0-1.757812 1.425781-3.183594 3.183593-3.183594zm0 0" fill="url(#o)"/><path d="m10.914062 6.539062c-1.761718 0-3.183593 1.417969-3.183593 3.183594 0 .027344 0 .058594.003906.085938.042969-1.726563 1.445313-3.097656 3.179687-3.097656 1.734376 0 3.136719 1.371093 3.183594 3.097656 0-.027344 0-.058594 0-.085938 0-1.765625-1.417968-3.183594-3.183594-3.183594zm0 0" fill="#fff" fill-opacity=".392157"/><path d="m7.734375 9.902344c0 .039062-.003906.078125-.003906.113281 0 1.765625 1.421875 3.183594 3.183593 3.183594 1.765626 0 3.183594-1.417969 3.183594-3.183594 0-.035156 0-.074219 0-.113281-.0625 1.710937-1.457031 3.070312-3.183594 3.070312-1.722656 0-3.121093-1.359375-3.179687-3.070312zm0 0" fill-opacity=".235294"/><path d="m253.975747-62.832713c40.905184 0 74.083834 33.17865 74.083834 74.083834 0 40.905185-33.17865 74.083835-74.083834 74.083835-40.905185 0-74.083835-33.17865-74.083835-74.083835 0-40.905184 33.17865-74.083834 74.083835-74.083834zm0 0" fill="none" stroke="#212121" stroke-linecap="round" stroke-linejoin="round" stroke-width="3" transform="matrix(.0429729 0 0 .0429729 0 9.239163)"/></svg>

<?xml version="1.0" encoding="UTF-8"?>
<svg xmlns="http://www.w3.org/2000/svg" xmlns:xlink="http://www.w3.org/1999/xlink" width="22pt" height="22pt" viewBox="0 0 22 22" version="1.1">
<defs>
<linearGradient id="linear0" gradientUnits="userSpaceOnUse" x1="254" y1="233.5" x2="254" y2="254.66667" gradientTransform="matrix(0.0429729,0,0,0.0429729,-0.00000171891,9.239163)">
<stop offset="0" style="stop-color:rgb(0%,0%,0%);stop-opacity:0.27451;"/>
<stop offset="1" style="stop-color:rgb(0%,0%,0%);stop-opacity:0;"/>
</linearGradient>
<radialGradient id="radial0" gradientUnits="userSpaceOnUse" cx="450.90894" cy="189.57936" fx="450.90894" fy="189.57936" r="21.166656" gradientTransform="matrix(0.000000119742,-0.0537161,-0.0966889,-0.0000000698078,36.749413,43.721792)">
<stop offset="0" style="stop-color:rgb(0%,0%,0%);stop-opacity:0.313725;"/>
<stop offset="0.222222" style="stop-color:rgb(0%,0%,0%);stop-opacity:0.27451;"/>
<stop offset="1" style="stop-color:rgb(0%,0%,0%);stop-opacity:0;"/>
</radialGradient>
<radialGradient id="radial1" gradientUnits="userSpaceOnUse" cx="450.90894" cy="189.57936" fx="450.90894" fy="189.57936" r="21.166656" gradientTransform="matrix(-0.000000119742,0.0537161,0.0966889,0.0000000698078,-14.919203,-5.175142)">
<stop offset="0" style="stop-color:rgb(0%,0%,0%);stop-opacity:0.313725;"/>
<stop offset="0.222222" style="stop-color:rgb(0%,0%,0%);stop-opacity:0.27451;"/>
<stop offset="1" style="stop-color:rgb(0%,0%,0%);stop-opacity:0;"/>
</radialGradient>
<radialGradient id="radial2" gradientUnits="userSpaceOnUse" cx="450.90894" cy="189.57936" fx="450.90894" fy="189.57936" r="21.166656" gradientTransform="matrix(-0.000000119742,-0.0537161,0.0966889,-0.0000000698078,-14.919203,43.721792)">
<stop offset="0" style="stop-color:rgb(0%,0%,0%);stop-opacity:0.313725;"/>
<stop offset="0.222222" style="stop-color:rgb(0%,0%,0%);stop-opacity:0.27451;"/>
<stop offset="1" style="stop-color:rgb(0%,0%,0%);stop-opacity:0;"/>
</radialGradient>
<radialGradient id="radial3" gradientUnits="userSpaceOnUse" cx="450.90894" cy="189.57936" fx="450.90894" fy="189.57936" r="21.166656" gradientTransform="matrix(0.000000119742,0.0537161,-0.0966889,0.0000000698078,36.749411,-5.175143)">
<stop offset="0" style="stop-color:rgb(0%,0%,0%);stop-opacity:0.313725;"/>
<stop offset="0.222222" style="stop-color:rgb(0%,0%,0%);stop-opacity:0.27451;"/>
<stop offset="1" style="stop-color:rgb(0%,0%,0%);stop-opacity:0;"/>
</radialGradient>
<linearGradient id="linear1" gradientUnits="userSpaceOnUse" x1="306.91666" y1="-25.791676" x2="305.95456" y2="-135.32916" gradientTransform="matrix(0.0518029,0,0,0.149471,-4.024634,23.128427)">
<stop offset="0" style="stop-color:rgb(25.882353%,25.882353%,25.882353%);stop-opacity:1;"/>
<stop offset="1" style="stop-color:rgb(38.039216%,38.039216%,38.039216%);stop-opacity:1;"/>
</linearGradient>
<linearGradient id="linear2" gradientUnits="userSpaceOnUse" x1="1120" y1="1695.1182" x2="1120" y2="255.11812" gradientTransform="matrix(0.0113699,0,0,0.0113699,0,0.00940418)">
<stop offset="0" style="stop-color:rgb(95.686275%,26.27451%,21.176471%);stop-opacity:1;"/>
<stop offset="1" style="stop-color:rgb(93.72549%,32.54902%,31.372549%);stop-opacity:1;"/>
</linearGradient>
<linearGradient id="linear3" gradientUnits="userSpaceOnUse" x1="444.5" y1="185.875" x2="444.5" y2="148.83333" gradientTransform="matrix(0.5,0,0,0.571428,-105.83347,106.33793)">
<stop offset="0" style="stop-color:rgb(25.882353%,25.882353%,25.882353%);stop-opacity:1;"/>
<stop offset="1" style="stop-color:rgb(38.039216%,38.039216%,38.039216%);stop-opacity:1;"/>
</linearGradient>
<linearGradient id="linear4" gradientUnits="userSpaceOnUse" x1="444.5" y1="185.875" x2="444.5" y2="148.83333" gradientTransform="matrix(0.5,0,0,0.571428,-63.500116,106.33793)">
<stop offset="0" style="stop-color:rgb(25.882353%,25.882353%,25.882353%);stop-opacity:1;"/>
<stop offset="1" style="stop-color:rgb(38.039216%,38.039216%,38.039216%);stop-opacity:1;"/>
</linearGradient>
<linearGradient id="linear5" gradientUnits="userSpaceOnUse" x1="444.5" y1="185.875" x2="444.5" y2="148.83333" gradientTransform="matrix(0.5,0,0,0.571428,-21.166803,106.33793)">
<stop offset="0" style="stop-color:rgb(25.882353%,25.882353%,25.882353%);stop-opacity:1;"/>
<stop offset="1" style="stop-color:rgb(38.039216%,38.039216%,38.039216%);stop-opacity:1;"/>
</linearGradient>
<linearGradient id="linear6" gradientUnits="userSpaceOnUse" x1="444.5" y1="185.875" x2="444.5" y2="148.83333" gradientTransform="matrix(0.5,0,0,0.571428,169.3332,106.33793)">
<stop offset="0" style="stop-color:rgb(25.882353%,25.882353%,25.882353%);stop-opacity:1;"/>
<stop offset="1" style="stop-color:rgb(38.039216%,38.039216%,38.039216%);stop-opacity:1;"/>
</linearGradient>
<linearGradient id="linear7" gradientUnits="userSpaceOnUse" x1="254" y1="233.5" x2="254" y2="-147.5" gradientTransform="matrix(0.0429729,0,0,0.0429729,0,9.239163)">
<stop offset="0" style="stop-color:rgb(95.686275%,26.27451%,21.176471%);stop-opacity:1;"/>
<stop offset="1" style="stop-color:rgb(93.72549%,32.54902%,31.372549%);stop-opacity:1;"/>
</linearGradient>
</defs>
<g id="surface1">
<path style=" stroke:none;fill-rule:nonzero;fill:url(#linear0);" d="M 3.183594 19.273438 L 18.648438 19.273438 L 18.648438 20.183594 L 3.183594 20.183594 Z M 3.183594 19.273438 "/>
<path style=" stroke:none;fill-rule:nonzero;fill:url(#radial0);" d="M 18.648438 19.273438 L 20.464844 19.273438 L 20.464844 18.363281 L 18.648438 18.363281 Z M 18.648438 19.273438 "/>
<path style=" stroke:none;fill-rule:nonzero;fill:url(#radial1);" d="M 3.183594 19.273438 L 1.363281 19.273438 L 1.363281 20.183594 L 3.183594 20.183594 Z M 3.183594 19.273438 "/>
<path style=" stroke:none;fill-rule:nonzero;fill:url(#radial2);" d="M 3.183594 19.273438 L 1.363281 19.273438 L 1.363281 18.363281 L 3.183594 18.363281 Z M 3.183594 19.273438 "/>
<path style=" stroke:none;fill-rule:nonzero;fill:url(#radial3);" d="M 18.648438 19.273438 L 20.464844 19.273438 L 20.464844 20.183594 L 18.648438 20.183594 Z M 18.648438 19.273438 "/>
<path style=" stroke:none;fill-rule:nonzero;fill:url(#linear1);" d="M 2.273438 2.902344 L 19.554688 2.902344 C 20.058594 2.902344 20.464844 3.308594 20.464844 3.808594 L 20.464844 18.363281 C 20.464844 18.867188 20.058594 19.273438 19.554688 19.273438 L 2.273438 19.273438 C 1.773438 19.273438 1.363281 18.867188 1.363281 18.363281 L 1.363281 3.808594 C 1.363281 3.308594 1.773438 2.902344 2.273438 2.902344 Z M 2.273438 2.902344 "/>
<path style=" stroke:none;fill-rule:nonzero;fill:rgb(0%,0%,0%);fill-opacity:0.235294;" d="M 2.273438 19.28125 C 1.769531 19.28125 1.363281 18.875 1.363281 18.371094 L 1.363281 18.136719 C 1.363281 18.640625 1.769531 19.046875 2.273438 19.046875 L 19.554688 19.046875 C 20.058594 19.046875 20.464844 18.640625 20.464844 18.136719 L 20.464844 18.371094 C 20.464844 18.875 20.058594 19.28125 19.554688 19.28125 Z M 2.273438 19.28125 "/>
<path style=" stroke:none;fill-rule:nonzero;fill:url(#linear2);" d="M 4.546875 16.554688 C 4.042969 16.554688 3.636719 16.960938 3.636719 17.464844 L 3.636719 18.828125 C 3.636719 19.078125 3.839844 19.28125 4.09375 19.28125 L 17.738281 19.28125 C 17.988281 19.28125 18.191406 19.078125 18.191406 18.828125 L 18.191406 17.464844 C 18.191406 16.960938 17.785156 16.554688 17.28125 16.554688 Z M 4.546875 16.554688 "/>
<path style="fill-rule:nonzero;fill:url(#linear3);stroke-width:3;stroke-linecap:round;stroke-linejoin:miter;stroke:rgb(12.941176%,12.941176%,12.941176%);stroke-opacity:1;stroke-miterlimit:4;" d="M 116.443426 191.415735 C 122.261052 191.415735 126.987873 196.142556 126.987873 201.960182 C 126.987873 207.777809 122.261052 212.59553 116.443426 212.59553 C 110.534899 212.59553 105.808078 207.777809 105.808078 201.960182 C 105.808078 196.142556 110.534899 191.415735 116.443426 191.415735 Z M 116.443426 191.415735 " transform="matrix(0.0429729,0,0,0.0429729,0,9.239163)"/>
<path style="fill-rule:nonzero;fill:url(#linear4);stroke-width:3;stroke-linecap:round;stroke-linejoin:miter;stroke:rgb(12.941176%,12.941176%,12.941176%);stroke-opacity:1;stroke-miterlimit:4;" d="M 158.712116 191.415735 C 164.620643 191.415735 169.347464 196.142556 169.347464 201.960182 C 169.347464 207.777809 164.620643 212.59553 158.712116 212.59553 C 152.89449 212.59553 148.167669 207.777809 148.167669 201.960182 C 148.167669 196.142556 152.89449 191.415735 158.712116 191.415735 Z M 158.712116 191.415735 " transform="matrix(0.0429729,0,0,0.0429729,0,9.239163)"/>
<path style="fill-rule:nonzero;fill:url(#linear5);stroke-width:3;stroke-linecap:round;stroke-linejoin:miter;stroke:rgb(12.941176%,12.941176%,12.941176%);stroke-opacity:1;stroke-miterlimit:4;" d="M 201.071708 191.415735 C 206.889334 191.415735 211.707056 196.142556 211.707056 201.960182 C 211.707056 207.777809 206.889334 212.59553 201.071708 212.59553 C 195.254081 212.59553 190.52726 207.777809 190.52726 201.960182 C 190.52726 196.142556 195.254081 191.415735 201.071708 191.415735 Z M 201.071708 191.415735 " transform="matrix(0.0429729,0,0,0.0429729,0,9.239163)"/>
<path style="fill-rule:nonzero;fill:url(#linear6);stroke-width:3;stroke-linecap:round;stroke-linejoin:miter;stroke:rgb(12.941176%,12.941176%,12.941176%);stroke-opacity:1;stroke-miterlimit:4;" d="M 391.598968 191.415735 C 397.416594 191.415735 402.143415 196.142556 402.143415 201.960182 C 402.143415 207.777809 397.416594 212.59553 391.598968 212.59553 C 385.781342 212.59553 380.96362 207.777809 380.96362 201.960182 C 380.96362 196.142556 385.781342 191.415735 391.598968 191.415735 Z M 391.598968 191.415735 " transform="matrix(0.0429729,0,0,0.0429729,0,9.239163)"/>
<path style=" stroke:none;fill-rule:nonzero;fill:rgb(100%,100%,100%);fill-opacity:0.392157;" d="M 4.546875 16.554688 C 4.042969 16.554688 3.636719 16.960938 3.636719 17.464844 L 3.636719 17.679688 C 3.636719 17.175781 4.042969 16.773438 4.546875 16.773438 L 17.28125 16.773438 C 17.785156 16.773438 18.191406 17.175781 18.191406 17.679688 L 18.191406 17.464844 C 18.191406 16.960938 17.785156 16.554688 17.28125 16.554688 Z M 4.546875 16.554688 "/>
<path style=" stroke:none;fill-rule:nonzero;fill:rgb(0%,0%,0%);fill-opacity:0.235294;" d="M 3.636719 18.601562 L 3.636719 18.828125 C 3.636719 19.078125 3.839844 19.28125 4.09375 19.28125 L 17.738281 19.28125 C 17.988281 19.28125 18.191406 19.078125 18.191406 18.828125 L 18.191406 18.601562 C 18.191406 18.851562 17.988281 19.054688 17.738281 19.054688 L 4.09375 19.054688 C 3.839844 19.054688 3.636719 18.851562 3.636719 18.601562 Z M 3.636719 18.601562 "/>
<path style=" stroke:none;fill-rule:nonzero;fill:rgb(12.941176%,12.941176%,12.941176%);fill-opacity:1;" d="M 4.546875 16.488281 C 4.007812 16.488281 3.574219 16.925781 3.574219 17.464844 L 3.574219 18.828125 C 3.574219 19.113281 3.804688 19.347656 4.09375 19.347656 L 17.738281 19.347656 C 18.023438 19.347656 18.257812 19.113281 18.257812 18.828125 L 18.257812 17.464844 C 18.257812 16.925781 17.820312 16.488281 17.28125 16.488281 Z M 4.546875 16.617188 L 17.28125 16.617188 C 17.75 16.617188 18.128906 16.996094 18.128906 17.464844 L 18.128906 18.828125 C 18.128906 19.046875 17.953125 19.21875 17.738281 19.21875 L 4.09375 19.21875 C 3.875 19.21875 3.703125 19.046875 3.703125 18.828125 L 3.703125 17.464844 C 3.703125 16.996094 4.078125 16.617188 4.546875 16.617188 Z M 4.546875 16.617188 "/>
<path style=" stroke:none;fill-rule:nonzero;fill:rgb(100%,100%,100%);fill-opacity:0.392157;" d="M 2.273438 2.953125 C 1.769531 2.953125 1.363281 3.359375 1.363281 3.863281 L 1.363281 3.984375 C 1.363281 3.480469 1.769531 3.078125 2.273438 3.078125 L 19.554688 3.078125 C 20.058594 3.078125 20.464844 3.480469 20.464844 3.984375 L 20.464844 3.863281 C 20.464844 3.359375 20.058594 2.953125 19.554688 2.953125 Z M 2.273438 2.953125 "/>
<path style=" stroke:none;fill-rule:nonzero;fill:rgb(12.941176%,12.941176%,12.941176%);fill-opacity:1;" d="M 2.273438 2.835938 C 1.734375 2.835938 1.300781 3.273438 1.300781 3.808594 L 1.300781 18.363281 C 1.300781 18.902344 1.734375 19.335938 2.273438 19.335938 L 19.554688 19.335938 C 20.09375 19.335938 20.53125 18.902344 20.53125 18.363281 L 20.53125 3.808594 C 20.53125 3.273438 20.09375 2.835938 19.554688 2.835938 Z M 2.273438 2.964844 L 19.554688 2.964844 C 20.027344 2.964844 20.402344 3.339844 20.402344 3.808594 L 20.402344 18.363281 C 20.402344 18.832031 20.027344 19.207031 19.554688 19.207031 L 2.273438 19.207031 C 1.804688 19.207031 1.429688 18.832031 1.429688 18.363281 L 1.429688 3.808594 C 1.429688 3.339844 1.804688 2.964844 2.273438 2.964844 Z M 2.273438 2.964844 "/>
<path style=" stroke:none;fill-rule:nonzero;fill:url(#linear7);" d="M 10.914062 6.539062 C 12.671875 6.539062 14.097656 7.964844 14.097656 9.722656 C 14.097656 11.480469 12.671875 12.90625 10.914062 12.90625 C 9.15625 12.90625 7.730469 11.480469 7.730469 9.722656 C 7.730469 7.964844 9.15625 6.539062 10.914062 6.539062 Z M 10.914062 6.539062 "/>
<path style=" stroke:none;fill-rule:nonzero;fill:rgb(100%,100%,100%);fill-opacity:0.392157;" d="M 10.914062 6.539062 C 9.152344 6.539062 7.730469 7.957031 7.730469 9.722656 C 7.730469 9.75 7.730469 9.78125 7.734375 9.808594 C 7.777344 8.082031 9.179688 6.710938 10.914062 6.710938 C 12.648438 6.710938 14.050781 8.082031 14.097656 9.808594 C 14.097656 9.78125 14.097656 9.75 14.097656 9.722656 C 14.097656 7.957031 12.679688 6.539062 10.914062 6.539062 Z M 10.914062 6.539062 "/>
<path style=" stroke:none;fill-rule:nonzero;fill:rgb(0%,0%,0%);fill-opacity:0.235294;" d="M 7.734375 9.902344 C 7.734375 9.941406 7.730469 9.980469 7.730469 10.015625 C 7.730469 11.78125 9.152344 13.199219 10.914062 13.199219 C 12.679688 13.199219 14.097656 11.78125 14.097656 10.015625 C 14.097656 9.980469 14.097656 9.941406 14.097656 9.902344 C 14.035156 11.613281 12.640625 12.972656 10.914062 12.972656 C 9.191406 12.972656 7.792969 11.613281 7.734375 9.902344 Z M 7.734375 9.902344 "/>
<path style="fill:none;stroke-width:3;stroke-linecap:round;stroke-linejoin:round;stroke:rgb(12.941176%,12.941176%,12.941176%);stroke-opacity:1;stroke-miterlimit:4;" d="M 253.975747 -62.832713 C 294.880931 -62.832713 328.059581 -29.654063 328.059581 11.251121 C 328.059581 52.156306 294.880931 85.334956 253.975747 85.334956 C 213.070562 85.334956 179.891912 52.156306 179.891912 11.251121 C 179.891912 -29.654063 213.070562 -62.832713 253.975747 -62.832713 Z M 253.975747 -62.832713 " transform="matrix(0.0429729,0,0,0.0429729,0,9.239163)"/>
</g>
</svg>
